X: 39248
T: Tagaim Anuas
R: reel
M: 4/4
K: Dmajor
B2F2 BcBA|B2F2 decA|B2 FB defd|edef edcA|
B2 FA BcBA|B2 FB decA|BDFB dFBd|1 eBdf edcA:|2 eBdf edAd||
|:e2 df e2 dA|efdf ecdA|FGBd fdBG|EFGA BAdc|
e2 df e2 dA|efdf ecdA|Gded Fded|1 Ecag feAd:|2 Ecag fedc||

